X:1
T:Twenth-Fourth, CM
T:Amzi or Lucius Chapin, 1813
T:Twenth-Fourth, CM
T:Public Domain
C:Amzi or Lucius Chapin, 1813
Z:Public Domain
%%score ( 1 2 ) ( 3 4 )
L:1/8
M:none
K:G
V:1 treble 
V:2 treble 
V:3 bass 
V:4 bass 
V:1
 D4 | [B,G]2 [CA]2 [DB]4 [CA]4 | [CG]2 [B,E]2 [A,D]4 [CD]4 | [B,G]2 [CA]2 [DB]4 [Dc]4 | %4
 [Dd]8 (D2 EF) | c2 (BA) [DB]4 [=FA]4 | [EG]2 [CE]2 D4 D4 | [EG]2 [EA]2 (E2 F2) _G2 F2 | [DG]8 |] %9
V:2
 D4 | x12 | x12 | x12 | x8 d4 | G4 x8 | x4 D4 D4 | x4 B4 A4 | x8 |] %9
V:3
 D,4 | D,2 E,2 F,4 E,4 | D,2 E,2 F,4 E,4 | D,2 E,2 (F,2 G,2) (G,2 G,2) | (A,4 G,4) [D,F,]4 | %5
 [E,C]4 [G,B,]4 (G,,2 A,,B,,) | [C,_B,]4 [G,=B,]4 (G,2 F,2) | E,2 D,2 (D2 C2) (B,2 A,2) | %8
 [G,B,]8 |] %9
V:4
 D,4 | G,,4 G,,8 | G,,4 G,,8 | G,,4 G,,4 A,,4 | B,,8 x4 | x8 B,4 | x8 A,4 | G,4 C,4 D,4 | x8 |] %9

